; generated by PrusaSlicer 2.5.2+win64 on 2023-06-14 at 10:37:49 UTC

; 

; external perimeters extrusion width = 0.35mm
; perimeters extrusion width = 0.35mm
; infill extrusion width = 0.45mm
; solid infill extrusion width = 0.45mm
; top infill extrusion width = 0.40mm
; first layer extrusion width = 0.42mm

M107
;TYPE:Custom
G90 ; use absolute coordinates
M83 ; extruder relative mode
M140 S50 ; set final bed temp
M104 S150 ; set temporary nozzle temp to prevent oozing during homing and auto bed leveling
M190 S50 ; wait for bed temp to stabilize
G28 ; home all axis

G1 Z50 F240
G1 X2 Y10 F3000
M104 S205 ; set final nozzle temp
M109 S205 ; wait for nozzle temp to stabilize
G1 Z0.28 F240
G92 E0
G1 Y140 E10 F1500 ; prime the nozzle
G1 X2.3 F5000
G92 E0
G1 Y10 E10 F1200 ; prime the nozzle
G92 E0
G21 ; set units to millimeters
G90 ; use absolute coordinates
M83 ; use relative distances for extrusion
; Filament gcode
M107
;LAYER_CHANGE
;Z:0.2
;HEIGHT:0.2
;BEFORE_LAYER_CHANGE
G92 E0
;0.2


G1 Z.2 F7800
;AFTER_LAYER_CHANGE
;0.2
G1 E-2 F2400
G1 X123.287 Y121.455 F7800
G1 E2 F2400
M204 S500
;TYPE:Skirt/Brim
;WIDTH:0.42
G1 F1200
G1 X125.045 Y119.947 E.07261
G1 X127.208 Y119.121 E.07261
G1 X128.5 Y118.996 E.04069
G1 X151.5 Y118.996 E.72115
G1 X153.782 Y119.393 E.07261
G1 X155.795 Y120.537 E.07261
G1 X157.303 Y122.295 E.07261
G1 X158.129 Y124.458 E.07261
G1 X158.254 Y125.75 E.04069
G1 X158.254 Y136.75 E.3449
G1 X158.084 Y138.255 E.04749
G1 X154.084 Y155.755 E.56285
G1 X153.189 Y157.891 E.07261
G1 X151.625 Y159.598 E.07261
G1 X149.575 Y160.677 E.07261
G1 X147.5 Y161.004 E.06587
G1 X132.5 Y161.004 E.47031
G1 X130.218 Y160.607 E.07261
G1 X128.205 Y159.463 E.07261
G1 X126.697 Y157.705 E.07261
G1 X125.916 Y155.755 E.06587
G1 X121.916 Y138.255 E.56285
G1 X121.746 Y136.75 E.04749
G1 X121.746 Y125.75 E.3449
G1 X122.143 Y123.468 E.07261
G1 X123.261 Y121.501 E.07097
G1 X123.6 Y121.7 F7800
G1 F1200
G1 X123.661 Y121.597 E.00376
G1 X125.404 Y120.175 E.07054
G1 X128.5 Y119.373 E.10026
G1 X151.5 Y119.373 E.72115
G1 X153.715 Y119.77 E.07054
G1 X155.653 Y120.911 E.07054
G1 X157.075 Y122.654 E.07054
G1 X157.877 Y125.75 E.10026
G1 X157.877 Y136.75 E.3449
G1 X157.717 Y138.171 E.04484
G1 X153.717 Y155.671 E.56285
G1 X152.836 Y157.741 E.07054
G1 X151.292 Y159.377 E.07054
G1 X149.275 Y160.375 E.07054
G1 X147.5 Y160.627 E.05622
G1 X132.5 Y160.627 E.47031
G1 X130.285 Y160.23 E.07054
G1 X128.347 Y159.089 E.07054
G1 X126.925 Y157.346 E.07054
G1 X126.283 Y155.671 E.05622
G1 X122.283 Y138.171 E.56285
G1 X122.123 Y136.75 E.04484
G1 X122.123 Y125.75 E.3449
G1 X122.52 Y123.535 E.07054
G1 X123.573 Y121.745 E.06513
G1 E-2 F2400
G1 X146.813 Y153.563 F7800
G1 E2 F2400
;TYPE:Perimeter
;WIDTH:0.419999
G1 F1200
G1 X133.187 Y153.563 E.42723
G1 X133.187 Y146.225 E.23006
G1 X133.143 Y146.006 E.00702
G1 X129.187 Y136.611 E.31961
G1 X129.187 Y126.437 E.319
G1 X150.813 Y126.437 E.67806
G1 X150.813 Y136.611 E.319
G1 X146.857 Y146.006 E.31961
G1 X146.813 Y146.225 E.00702
G1 X146.813 Y153.51 E.22841
G1 X147.19 Y153.94 F7800
;TYPE:External perimeter
G1 F1200
G1 X132.81 Y153.94 E.45087
G1 X132.81 Y146.75 E.22544
G1 X132.795 Y146.152 E.01875
G1 X128.81 Y136.687 E.322
G1 X128.81 Y126.06 E.33321
G1 X151.19 Y126.06 E.70171
G1 X151.19 Y136.687 E.33321
G1 X147.205 Y146.152 E.322
G1 X147.19 Y146.225 E.00234
G1 X147.19 Y153.888 E.24024
G1 X146.887 Y153.765 F7800
G1 E-2 F2400
G1 X150.7 Y127.315 F7800
G1 E2 F2400
;TYPE:Solid infill
;WIDTH:0.420963
G1 F1200
G1 X150.105 Y126.72 E.02643
G1 X149.571 Y126.72 E.01681
G1 X150.53 Y127.679 E.04266
G1 X150.53 Y128.214 E.01681
G1 X149.036 Y126.72 E.06643
G1 X148.501 Y126.72 E.01681
G1 X150.53 Y128.749 E.09019
G1 X150.53 Y129.283 E.01681
G1 X147.967 Y126.72 E.11396
G1 X147.432 Y126.72 E.01681
G1 X150.53 Y129.818 E.13773
G1 X150.53 Y130.353 E.01681
G1 X146.897 Y126.72 E.16149
G1 X146.363 Y126.72 E.01681
G1 X150.53 Y130.887 E.18526
G1 X150.53 Y131.422 E.01681
G1 X145.828 Y126.72 E.20903
G1 X145.293 Y126.72 E.01681
G1 X150.53 Y131.957 E.23279
G1 X150.53 Y132.491 E.01681
G1 X144.759 Y126.72 E.25656
G1 X144.224 Y126.72 E.01681
G1 X150.53 Y133.026 E.28033
G1 X150.53 Y133.56 E.01681
G1 X143.69 Y126.72 E.3041
G1 X143.155 Y126.72 E.01681
G1 X150.53 Y134.095 E.32786
G1 X150.53 Y134.63 E.01681
G1 X142.62 Y126.72 E.35163
G1 X142.086 Y126.72 E.01681
G1 X150.53 Y135.164 E.3754
G1 X150.53 Y135.699 E.01681
G1 X141.551 Y126.72 E.39916
G1 X141.016 Y126.72 E.01681
G1 X150.53 Y136.234 E.42293
G1 X150.53 Y136.554 E.01008
G1 X150.467 Y136.705 E.00514
G1 X140.482 Y126.72 E.44388
G1 X139.947 Y126.72 E.01681
G1 X150.308 Y137.081 E.4606
G1 X150.15 Y137.457 E.01283
G1 X139.413 Y126.72 E.47733
G1 X138.878 Y126.72 E.01681
G1 X149.991 Y137.833 E.49405
G1 X149.833 Y138.21 E.01283
G1 X138.343 Y126.72 E.51078
G1 X137.809 Y126.72 E.01681
G1 X149.675 Y138.586 E.5275
G1 X149.516 Y138.962 E.01283
G1 X137.274 Y126.72 E.54423
G1 X136.739 Y126.72 E.01681
G1 X149.358 Y139.338 E.56095
G1 X149.199 Y139.715 E.01283
G1 X136.205 Y126.72 E.57768
G1 X135.67 Y126.72 E.01681
G1 X149.041 Y140.091 E.5944
G1 X148.883 Y140.467 E.01283
G1 X135.135 Y126.72 E.61113
G1 X134.601 Y126.72 E.01681
G1 X148.724 Y140.843 E.62785
G1 X148.566 Y141.219 E.01283
G1 X134.066 Y126.72 E.64458
G1 X133.532 Y126.72 E.01681
G1 X148.407 Y141.596 E.6613
G1 X148.249 Y141.972 E.01283
G1 X132.997 Y126.72 E.67803
G1 X132.462 Y126.72 E.01681
G1 X148.091 Y142.348 E.69475
G1 X147.932 Y142.724 E.01283
G1 X131.928 Y126.72 E.71148
G1 X131.393 Y126.72 E.01681
G1 X147.774 Y143.101 E.7282
G1 X147.615 Y143.477 E.01283
G1 X130.858 Y126.72 E.74493
G1 X130.324 Y126.72 E.01681
G1 X147.457 Y143.853 E.76165
G1 X147.298 Y144.229 E.01283
G1 X129.789 Y126.72 E.77838
G1 X129.47 Y126.72 E.01003
G1 X129.47 Y126.935 E.00677
G1 X147.14 Y144.605 E.78553
G1 X146.982 Y144.982 E.01283
G1 X129.47 Y127.47 E.77849
G1 X129.47 Y128.005 E.01681
G1 X146.823 Y145.358 E.77144
G1 X146.665 Y145.734 E.01283
G1 X129.47 Y128.539 E.7644
G1 X129.47 Y129.074 E.01681
G1 X146.538 Y146.142 E.75878
G1 X146.53 Y146.669 E.01655
G1 X129.47 Y129.608 E.75841
G1 X129.47 Y130.143 E.01681
G1 X146.53 Y147.203 E.75841
G1 X146.53 Y147.738 E.01681
G1 X129.47 Y130.678 E.75841
G1 X129.47 Y131.212 E.01681
G1 X146.53 Y148.273 E.75841
G1 X146.53 Y148.807 E.01681
G1 X129.47 Y131.747 E.75841
G1 X129.47 Y132.282 E.01681
G1 X146.53 Y149.342 E.75841
G1 X146.53 Y149.876 E.01681
G1 X129.47 Y132.816 E.75841
G1 X129.47 Y133.351 E.01681
G1 X146.53 Y150.411 E.75841
G1 X146.53 Y150.946 E.01681
G1 X129.47 Y133.886 E.75841
G1 X129.47 Y134.42 E.01681
G1 X146.53 Y151.48 E.75841
G1 X146.53 Y152.015 E.01681
G1 X129.47 Y134.955 E.75841
G1 X129.47 Y135.489 E.01681
G1 X146.53 Y152.55 E.75841
G1 X146.53 Y153.084 E.01681
G1 X129.47 Y136.024 E.75841
G1 X129.473 Y136.562 E.01691
G1 X146.191 Y153.28 E.7432
G1 X145.657 Y153.28 E.01681
G1 X129.862 Y137.485 E.70215
G1 X130.251 Y138.409 E.0315
G1 X145.122 Y153.28 E.6611
G1 X144.587 Y153.28 E.01681
G1 X130.64 Y139.332 E.62005
G1 X131.028 Y140.256 E.0315
G1 X144.053 Y153.28 E.57899
G1 X143.518 Y153.28 E.01681
G1 X131.417 Y141.179 E.53794
G1 X131.806 Y142.103 E.0315
G1 X142.984 Y153.28 E.49689
G1 X142.449 Y153.28 E.01681
G1 X132.195 Y143.026 E.45584
G1 X132.584 Y143.95 E.0315
G1 X141.914 Y153.28 E.41479
G1 X141.38 Y153.28 E.01681
G1 X132.973 Y144.873 E.37373
G1 X133.361 Y145.797 E.0315
G1 X140.845 Y153.28 E.33268
G1 X140.31 Y153.28 E.01681
G1 X133.47 Y146.44 E.30409
G1 X133.47 Y146.974 E.01681
G1 X139.776 Y153.28 E.28033
G1 X139.241 Y153.28 E.01681
G1 X133.47 Y147.509 E.25656
G1 X133.47 Y148.044 E.01681
G1 X138.706 Y153.28 E.23279
G1 X138.172 Y153.28 E.01681
G1 X133.47 Y148.578 E.20902
G1 X133.47 Y149.113 E.01681
G1 X137.637 Y153.28 E.18526
G1 X137.103 Y153.28 E.01681
G1 X133.47 Y149.647 E.16149
G1 X133.47 Y150.182 E.01681
G1 X136.568 Y153.28 E.13772
G1 X136.033 Y153.28 E.01681
G1 X133.47 Y150.717 E.11396
G1 X133.47 Y151.251 E.01681
G1 X135.499 Y153.28 E.09019
G1 X134.964 Y153.28 E.01681
G1 X133.47 Y151.786 E.06642
G1 X133.47 Y152.321 E.01681
G1 X134.429 Y153.28 E.04265
G1 X133.895 Y153.28 E.01681
G1 X133.3 Y152.686 E.02643
;LAYER_CHANGE
;Z:0.4
;HEIGHT:0.2
;BEFORE_LAYER_CHANGE
G92 E0
;0.4


G1 Z.4 F7800
;AFTER_LAYER_CHANGE
;0.4
G1 E-2 F2400
G1 X147.018 Y153.768 F7800
G1 E2 F2400
;TYPE:Perimeter
;WIDTH:0.349999
G1 X132.982 Y153.768 E.35839
G1 X132.982 Y146.246 E.19207
G1 X132.946 Y146.067 E.00466
G1 X128.982 Y136.653 E.26082
G1 X128.982 Y126.232 E.26608
G1 X151.018 Y126.232 E.56266
G1 X151.018 Y136.653 E.26608
G1 X147.054 Y146.067 E.26082
G1 X147.018 Y146.246 E.00466
G1 X147.018 Y153.715 E.19073
G1 X147.325 Y154.075 F7800
;TYPE:External perimeter
G1 F2400
G1 X132.675 Y154.075 E.37407
G1 X132.663 Y146.186 E.20143
G1 X128.675 Y136.715 E.2624
G1 X128.675 Y125.925 E.2755
G1 X151.325 Y125.925 E.57834
G1 X151.325 Y136.715 E.2755
G1 X147.337 Y146.186 E.2624
G1 X147.325 Y154.023 E.20009
G1 X147.036 Y153.878 F7800
G1 X146.921 Y152.841
;TYPE:Solid infill
;WIDTH:0.453265
G1 F2400
G1 X146.274 Y153.488 E.0312
G1 X145.694 Y153.488 E.0198
G1 X146.738 Y152.444 E.05037
G1 X146.738 Y151.864 E.0198
G1 X145.114 Y153.488 E.07837
G1 X144.533 Y153.488 E.0198
G1 X146.738 Y151.283 E.10637
G1 X146.738 Y150.703 E.0198
G1 X143.953 Y153.488 E.13437
G1 X143.373 Y153.488 E.0198
G1 X146.738 Y150.123 E.16237
G1 X146.738 Y149.542 E.0198
G1 X142.792 Y153.488 E.19038
G1 X142.212 Y153.488 E.0198
G1 X146.738 Y148.962 E.21838
G1 X146.738 Y148.382 E.0198
G1 X141.632 Y153.488 E.24638
G1 X141.051 Y153.488 E.0198
G1 X146.738 Y147.801 E.27438
G1 X146.738 Y147.221 E.0198
G1 X140.471 Y153.488 E.30239
G1 X139.891 Y153.488 E.0198
G1 X146.738 Y146.641 E.33039
G1 X146.738 Y146.239 E.0137
G1 X146.753 Y146.087 E.0052
G1 X146.784 Y146.014 E.00273
G1 X139.31 Y153.488 E.36065
G1 X138.73 Y153.488 E.0198
G1 X147.204 Y145.013 E.40891
G1 X147.624 Y144.013 E.03701
G1 X138.15 Y153.488 E.45717
G1 X137.569 Y153.488 E.0198
G1 X148.044 Y143.013 E.50543
G1 X148.464 Y142.013 E.03701
G1 X136.989 Y153.488 E.55369
G1 X136.409 Y153.488 E.0198
G1 X148.884 Y141.013 E.60195
G1 X149.303 Y140.013 E.03701
G1 X135.828 Y153.488 E.65021
G1 X135.248 Y153.488 E.0198
G1 X149.723 Y139.013 E.69847
G1 X150.143 Y138.012 E.03701
G1 X134.668 Y153.488 E.74673
G1 X134.088 Y153.488 E.0198
G1 X150.563 Y137.012 E.795
G1 X150.738 Y136.596 E.0154
G1 X150.738 Y136.257 E.01156
G1 X133.507 Y153.488 E.83143
G1 X133.262 Y153.488 E.00835
G1 X133.262 Y153.152 E.01145
G1 X150.738 Y135.677 E.84324
G1 X150.738 Y135.097 E.0198
G1 X133.262 Y152.572 E.84324
G1 X133.262 Y151.991 E.0198
G1 X150.738 Y134.516 E.84324
G1 X150.738 Y133.936 E.0198
G1 X133.262 Y151.411 E.84324
G1 X133.262 Y150.831 E.0198
G1 X150.738 Y133.356 E.84324
G1 X150.738 Y132.775 E.0198
G1 X133.262 Y150.251 E.84324
G1 X133.262 Y149.67 E.0198
G1 X150.738 Y132.195 E.84324
G1 X150.738 Y131.615 E.0198
G1 X133.262 Y149.09 E.84324
G1 X133.262 Y148.51 E.0198
G1 X150.738 Y131.034 E.84324
G1 X150.738 Y130.454 E.0198
G1 X133.262 Y147.929 E.84324
G1 X133.262 Y147.349 E.0198
G1 X150.738 Y129.874 E.84324
G1 X150.738 Y129.293 E.0198
G1 X133.262 Y146.769 E.84324
G1 X133.258 Y146.193 E.01964
G1 X150.738 Y128.713 E.84347
G1 X150.738 Y128.133 E.0198
G1 X133.11 Y145.761 E.85061
G1 X132.938 Y145.352 E.01513
G1 X150.738 Y127.552 E.85889
G1 X150.738 Y126.972 E.0198
G1 X132.766 Y144.943 E.86717
G1 X132.595 Y144.535 E.01513
G1 X150.617 Y126.512 E.86964
G1 X150.037 Y126.512 E.0198
G1 X132.423 Y144.126 E.84991
G1 X132.252 Y143.717 E.01513
G1 X149.456 Y126.512 E.83019
G1 X148.876 Y126.512 E.0198
G1 X132.08 Y143.308 E.81047
G1 X131.908 Y142.9 E.01513
G1 X148.296 Y126.512 E.79074
G1 X147.716 Y126.512 E.0198
G1 X131.737 Y142.491 E.77102
G1 X131.565 Y142.082 E.01513
G1 X147.135 Y126.512 E.7513
G1 X146.555 Y126.512 E.0198
G1 X131.394 Y141.673 E.73158
G1 X131.222 Y141.265 E.01513
G1 X145.975 Y126.512 E.71185
G1 X145.394 Y126.512 E.0198
G1 X131.051 Y140.856 E.69213
G1 X130.879 Y140.447 E.01513
G1 X144.814 Y126.512 E.67241
G1 X144.234 Y126.512 E.0198
G1 X130.707 Y140.039 E.65268
G1 X130.536 Y139.63 E.01513
G1 X143.653 Y126.512 E.63296
G1 X143.073 Y126.512 E.0198
G1 X130.364 Y139.221 E.61324
G1 X130.193 Y138.812 E.01513
G1 X142.493 Y126.512 E.59351
G1 X141.912 Y126.512 E.0198
G1 X130.021 Y138.404 E.57379
G1 X129.85 Y137.995 E.01513
G1 X141.332 Y126.512 E.55407
G1 X140.752 Y126.512 E.0198
G1 X129.678 Y137.586 E.53435
G1 X129.506 Y137.177 E.01513
G1 X140.171 Y126.512 E.51462
G1 X139.591 Y126.512 E.0198
G1 X129.335 Y136.769 E.4949
G1 X129.262 Y136.596 E.00638
G1 X129.262 Y136.261 E.01144
G1 X139.011 Y126.512 E.47039
G1 X138.43 Y126.512 E.0198
G1 X129.262 Y135.68 E.44239
G1 X129.262 Y135.1 E.0198
G1 X137.85 Y126.512 E.41439
G1 X137.27 Y126.512 E.0198
G1 X129.262 Y134.52 E.38639
G1 X129.262 Y133.94 E.0198
G1 X136.69 Y126.512 E.35838
G1 X136.109 Y126.512 E.0198
G1 X129.262 Y133.359 E.33038
G1 X129.262 Y132.779 E.0198
G1 X135.529 Y126.512 E.30238
G1 X134.949 Y126.512 E.0198
G1 X129.262 Y132.199 E.27438
G1 X129.262 Y131.618 E.0198
G1 X134.368 Y126.512 E.24637
G1 X133.788 Y126.512 E.0198
G1 X129.262 Y131.038 E.21837
G1 X129.262 Y130.458 E.0198
G1 X133.208 Y126.512 E.19037
G1 X132.627 Y126.512 E.0198
G1 X129.262 Y129.877 E.16237
G1 X129.262 Y129.297 E.0198
G1 X132.047 Y126.512 E.13437
G1 X131.467 Y126.512 E.0198
G1 X129.262 Y128.717 E.10636
G1 X129.262 Y128.136 E.0198
G1 X130.886 Y126.512 E.07836
G1 X130.306 Y126.512 E.0198
G1 X129.262 Y127.556 E.05036
G1 X129.262 Y126.976 E.0198
G1 X129.909 Y126.329 E.0312
;LAYER_CHANGE
;Z:0.6
;HEIGHT:0.2
;BEFORE_LAYER_CHANGE
G92 E0
;0.6


G1 Z.6 F7800
;AFTER_LAYER_CHANGE
;0.6
G1 E-2 F2400
G1 X147.018 Y153.768 F7800
G1 E2 F2400
;TYPE:Perimeter
;WIDTH:0.349999
G1 X132.982 Y153.768 E.35839
G1 X132.982 Y146.246 E.19207
G1 X132.946 Y146.067 E.00466
G1 X128.982 Y136.653 E.26082
G1 X128.982 Y126.232 E.26608
G1 X151.018 Y126.232 E.56266
G1 X151.018 Y136.653 E.26608
G1 X147.054 Y146.067 E.26082
G1 X147.018 Y146.246 E.00466
G1 X147.018 Y153.715 E.19073
G1 X147.325 Y154.075 F7800
;TYPE:External perimeter
G1 F2400
G1 X132.675 Y154.075 E.37407
G1 X132.663 Y146.186 E.20143
G1 X128.675 Y136.715 E.2624
G1 X128.675 Y125.925 E.2755
G1 X151.325 Y125.925 E.57834
G1 X151.325 Y136.715 E.2755
G1 X147.337 Y146.186 E.2624
G1 X147.325 Y154.023 E.20009
G1 X147.036 Y153.878 F7800
G1 E-2 F2400
G1 X147.417 Y143.268 F7800
G1 E2 F2400
;TYPE:Top solid infill
;WIDTH:0.404217
G1 F1800
G1 X147.802 Y143.653 E.01638
G1 X147.651 Y144.013 E.01173
G1 X147.066 Y143.429 E.02485
G1 X146.555 Y143.429 E.01535
G1 X147.5 Y144.373 E.04014
G1 X147.349 Y144.733 E.01173
G1 X146.044 Y143.429 E.05543
G1 X145.533 Y143.429 E.01535
G1 X147.198 Y145.093 E.07072
G1 X147.047 Y145.453 E.01173
G1 X145.023 Y143.429 E.08601
G1 X144.512 Y143.429 E.01535
G1 X146.896 Y145.813 E.1013
G1 X146.778 Y146.094 E.00915
G1 X146.767 Y146.195 E.00307
G1 X144.001 Y143.429 E.11755
G1 X143.49 Y143.429 E.01535
G1 X146.763 Y146.702 E.13905
G1 X146.763 Y147.212 E.01535
G1 X142.979 Y143.429 E.16076
G1 X142.468 Y143.429 E.01535
G1 X146.763 Y147.723 E.18247
G1 X146.763 Y148.234 E.01535
G1 X141.957 Y143.429 E.20418
G1 X141.446 Y143.429 E.01535
G1 X146.763 Y148.745 E.22589
G1 X146.763 Y149.256 E.01535
G1 X140.935 Y143.429 E.2476
G1 X140.424 Y143.429 E.01535
G1 X146.763 Y149.767 E.2693
G1 X146.763 Y150.278 E.01535
G1 X139.913 Y143.429 E.29101
G1 X139.402 Y143.429 E.01535
G1 X146.763 Y150.789 E.31272
G1 X146.763 Y151.3 E.01535
G1 X138.891 Y143.429 E.33443
G1 X138.38 Y143.429 E.01535
G1 X146.763 Y151.811 E.35614
G1 X146.763 Y152.322 E.01535
G1 X137.869 Y143.429 E.37784
G1 X137.358 Y143.429 E.01535
G1 X146.763 Y152.833 E.39955
G1 X146.763 Y153.344 E.01535
G1 X136.847 Y143.429 E.42126
G1 X136.336 Y143.429 E.01535
G1 X146.42 Y153.513 E.42843
G1 X145.909 Y153.513 E.01535
G1 X135.825 Y143.429 E.42843
G1 X135.314 Y143.429 E.01535
G1 X145.399 Y153.513 E.42843
G1 X144.888 Y153.513 E.01535
G1 X134.803 Y143.429 E.42843
G1 X134.293 Y143.429 E.01535
G1 X144.377 Y153.513 E.42843
G1 X143.866 Y153.513 E.01535
G1 X133.782 Y143.429 E.42843
G1 X133.271 Y143.429 E.01535
G1 X143.355 Y153.513 E.42843
G1 X142.844 Y153.513 E.01535
G1 X132.76 Y143.429 E.42843
G1 X132.249 Y143.429 E.01535
G1 X142.333 Y153.513 E.42843
